src/topics/icons/mixpanel.svg

<svg height="168" preserveAspectRatio="xMidYMid" viewBox="0 0 512 168" width="512" xmlns="http://www.w3.org/2000/svg"><g fill="#33547d"><ellipse cx="23.445462" cy="145.351111" rx="22.238384" ry="22.238384"/><ellipse cx="103.720856" cy="145.594182" rx="15.729261" ry="15.729261"/><ellipse cx="169.892977" cy="145.594182" rx="7.141107" ry="7.141107"/><path d="m99.4841859 98.7580768c-3.9098182 0-6.8059798-3.0399354-6.8059798-6.8059798v-28.9616162c0-9.9917576-4.7786667-17.6665859-15.4944647-17.6665859s-17.2321616 8.2540607-17.2321616 17.8124283v28.8157738c0 3.7660444-2.6065455 6.8059798-6.8059798 6.8059798-4.0546263 0-6.8059798-3.0399354-6.8059798-6.8059798v-28.9616162c0-9.9917576-5.2130909-17.6665859-15.9288889-17.6665859-11.0054141 0-16.7977374 8.2540607-16.7977374 17.8124283v28.8157738c0 3.7660444-2.7513535 6.8059798-6.80597976 6.8059798-3.91085252 0-6.80701414-3.0399354-6.80701414-6.8059798v-51.4068687c0-4.0546263 2.60654545-6.9507879 6.8059798-6.9507879 4.6338586 0 6.8059798 3.1857778 6.8059798 6.9507879v4.6338586c3.9098182-7.6748283 11.8742626-12.1638788 20.4179394-12.1638788 10.4261818 0 18.2458182 5.2130909 22.1556364 12.8879192 5.6475151-8.6884849 13.9015757-12.8879192 24.1829494-12.8879192 17.5217778 0 25.9206462 12.0190707 25.9206462 28.9616161v29.9742384c-.001034 3.7670788-2.750319 6.8070142-6.8049451 6.8070142z"/><path d="m125.404832 7.81860202c4.344243 0 7.964445 3.62020198 7.964445 7.96444448 0 4.3442424-3.620202 7.9644444-7.964445 7.9644444-4.344242 0-7.964444-3.620202-7.964444-7.9644444 0-4.3442425 3.620202-7.96444448 7.964444-7.96444448zm0 90.93947478c-4.054626 0-6.805979-3.0399354-6.805979-6.8059798v-51.5516768c0-3.7650101 2.896161-6.8059798 6.805979-6.8059798 3.909819 0 6.80598 3.0409697 6.80598 6.8059798v51.5516768c-.002069 3.7660444-2.751353 6.8059798-6.80598 6.8059798z"/><path d="m170.581851 57.0533495 17.232161-21.431596c1.158465-1.3032727 2.606546-2.0273131 4.489051-2.0273131 3.76501 0 6.226747 2.4617374 6.226747 5.9371313 0 1.3032727-.434424 2.6065455-1.592889 3.9098182l-18.969858 22.5900606 19.259474 22.7338343c1.013657 1.1584647 1.592889 2.3169293 1.592889 4.0546263 0 3.3326546-2.896161 5.9371313-6.081939 5.9371313-2.027313 0-3.620202-.7240404-4.778667-2.1741899l-17.376969-21.5743353-17.37697 21.5743353c-1.158465 1.4470465-2.751354 2.1741899-4.778667 2.1741899-3.185778 0-6.081939-2.6075798-6.081939-5.9371313 0-1.737697.579232-2.8961616 1.592889-4.0546263l19.259474-22.7338343-18.969858-22.5890263c-1.158465-1.3053414-1.592889-2.6075798-1.592889-3.9098181 0-3.475394 2.461737-5.9371314 6.226747-5.9371314 1.882505 0 3.330586.7240405 4.489051 2.0273132z"/><path d="m244.868396 99.3383434c-9.702141 0-17.666586-5.0662141-22.300444-12.4524606v32.1473942c0 3.766044-2.751354 6.803911-6.80598 6.803911-4.054627 0-6.80598-3.038901-6.80598-6.803911v-78.6328568c0-3.7650101 2.316929-6.8059798 6.516364-6.8059798 4.199434 0 6.661171 3.1857778 6.661171 6.9507879v4.9255434c4.344243-7.5300202 13.032728-12.4534949 22.734869-12.4534949 16.652929 0 30.264889 13.899507 30.264889 33.1610505 0 19.9814464-13.61196 33.1600161-30.264889 33.1600161zm-2.750319-55.0270707c-11.729455 0-19.549091 10.2793051-19.549091 21.8660202 0 11.5867152 7.819636 21.8660202 19.549091 21.8660202 11.729454 0 19.403248-8.8322586 19.403248-21.8660202 0-13.0327272-7.674828-21.8660202-19.403248-21.8660202z"/><path d="m346.958093 91.952097c0 3.7660444-2.606546 6.8059798-6.80598 6.8059798-4.054626 0-6.659103-3.0399354-6.659103-6.8059798v-3.1857778c-4.054626 6.0819394-11.729454 10.5720242-21.139911 10.5720242-20.277269 0-32.00362-14.7693899-32.00362-33.1620848 0-18.1010101 13.034796-33.1610505 33.450666-33.1610505 20.852364 0 33.162085 13.6119596 33.162085 33.1610505v25.7758384zm-33.305859-47.3522425c-11.58568 0-19.694933 9.7042101-19.694933 21.5764041 0 12.4534949 6.80598 21.576404 19.694933 21.576404 12.018037 0 19.692865-10.2813737 19.692865-21.576404 0-13.3223434-8.108218-21.5764041-19.692865-21.5764041z"/><path d="m387.939814 33.0172768c17.520744 0 30.407628 13.3223434 30.407628 30.2648889v28.6709656c0 3.7670788-3.039935 6.8059798-6.805979 6.8059798-3.763976 0-6.80598-3.038901-6.80598-6.8059798v-30.2648889c0-9.1229091-7.240404-16.218505-16.795669-16.218505-9.557333 0-16.654998 7.0935272-16.654998 16.218505v30.2648889c0 3.7670788-3.039935 6.8059798-6.80598 6.8059798-3.763975 0-6.805979-3.038901-6.805979-6.8059798v-28.672c0-16.9425454 12.743111-30.2638545 30.266957-30.2638545z"/><path d="m489.15756 66.3210667c0 2.3169293-1.303273 4.6338586-5.212057 4.6338586h-43.296582c.723006 9.9917575 7.528986 17.5207434 19.547022 17.5207434 7.531055 0 12.020105-2.6075798 16.797738-7.095596 1.159499-1.1584646 2.751353-2.1741899 4.48905-2.1741899 3.039936 0 5.64855 2.1741899 5.64855 5.6485495 0 1.4460121-.725075 2.7492849-1.737697 3.9077495-5.502707 6.3715556-15.351725 10.5730586-25.775839 10.5730586-21.577438 0-33.018311-15.0621091-33.018311-33.1631192 0-18.9698586 13.757802-33.1610505 32.435976-33.1610505 18.249956.0062061 30.12215 14.7745616 30.12215 33.309996zm-30.119047-22.4431839c-9.991757 0-16.797737 7.0935273-18.10101 16.073697h35.621754c-1.157431-8.6905535-7.674829-16.073697-17.520744-16.073697z"/><path d="m505.086448 98.7580768c-4.056694 0-6.805979-3.0399354-6.805979-6.8059798v-85.14508286c0-3.76707879 2.751353-6.8059798 6.805979-6.8059798 4.054627 0 6.803912 3.03890101 6.803912 6.8059798v85.14508286c.002068 3.7660444-2.749285 6.8059798-6.803912 6.8059798z"/></g></svg>

<?xml version="1.0" encoding="UTF-8" standalone="no"?>
<svg width="512px" height="168px" viewBox="0 0 512 168" version="1.1" xmlns="http://www.w3.org/2000/svg" xmlns:xlink="http://www.w3.org/1999/xlink" preserveAspectRatio="xMidYMid">
	<g fill="#33547D">
		<g transform="translate(1.034343, 123.086869)">
			<ellipse cx="22.4111192" cy="22.2642424" rx="22.2383838" ry="22.2383838"></ellipse>
			<ellipse cx="102.686513" cy="22.5073131" rx="15.7292606" ry="15.7292606"></ellipse>
			<ellipse cx="168.858634" cy="22.5073131" rx="7.14110707" ry="7.14110707"></ellipse>
		</g>
		<g>
			<path d="M99.4841859,98.7580768 C95.5743677,98.7580768 92.6782061,95.7181414 92.6782061,91.952097 L92.6782061,62.9904808 C92.6782061,52.9987232 87.8995394,45.3238949 77.1837414,45.3238949 C66.4679434,45.3238949 59.9515798,53.5779556 59.9515798,63.1363232 L59.9515798,91.952097 C59.9515798,95.7181414 57.3450343,98.7580768 53.1456,98.7580768 C49.0909737,98.7580768 46.3396202,95.7181414 46.3396202,91.952097 L46.3396202,62.9904808 C46.3396202,52.9987232 41.1265293,45.3238949 30.4107313,45.3238949 C19.4053172,45.3238949 13.6129939,53.5779556 13.6129939,63.1363232 L13.6129939,91.952097 C13.6129939,95.7181414 10.8616404,98.7580768 6.80701414,98.7580768 C2.89616162,98.7580768 0,95.7181414 0,91.952097 L0,40.5452283 C0,36.490602 2.60654545,33.5944404 6.8059798,33.5944404 C11.4398384,33.5944404 13.6119596,36.7802182 13.6119596,40.5452283 L13.6119596,45.1790869 C17.5217778,37.5042586 25.4862222,33.0152081 34.029899,33.0152081 C44.4560808,33.0152081 52.2757172,38.228299 56.1855354,45.9031273 C61.8330505,37.2146424 70.0871111,33.0152081 80.3684848,33.0152081 C97.8902626,33.0152081 106.289131,45.0342788 106.289131,61.9768242 L106.289131,91.9510626 C106.288097,95.7181414 103.538812,98.7580768 99.4841859,98.7580768 L99.4841859,98.7580768 Z"></path>
			<path d="M125.404832,7.81860202 C129.749075,7.81860202 133.369277,11.438804 133.369277,15.7830465 C133.369277,20.1272889 129.749075,23.7474909 125.404832,23.7474909 C121.06059,23.7474909 117.440388,20.1272889 117.440388,15.7830465 C117.440388,11.438804 121.06059,7.81860202 125.404832,7.81860202 L125.404832,7.81860202 Z M125.404832,98.7580768 C121.350206,98.7580768 118.598853,95.7181414 118.598853,91.952097 L118.598853,40.4004202 C118.598853,36.6354101 121.495014,33.5944404 125.404832,33.5944404 C129.314651,33.5944404 132.210812,36.6354101 132.210812,40.4004202 L132.210812,91.952097 C132.208743,95.7181414 129.459459,98.7580768 125.404832,98.7580768 L125.404832,98.7580768 Z"></path>
			<path d="M170.581851,57.0533495 L187.814012,35.6217535 C188.972477,34.3184808 190.420558,33.5944404 192.303063,33.5944404 C196.068073,33.5944404 198.52981,36.0561778 198.52981,39.5315717 C198.52981,40.8348444 198.095386,42.1381172 196.936921,43.4413899 L177.967063,66.0314505 L197.226537,88.7652848 C198.240194,89.9237495 198.819426,91.0822141 198.819426,92.8199111 C198.819426,96.1525657 195.923265,98.7570424 192.737487,98.7570424 C190.710174,98.7570424 189.117285,98.033002 187.95882,96.5828525 L170.581851,75.0085172 L153.204881,96.5828525 C152.046416,98.029899 150.453527,98.7570424 148.426214,98.7570424 C145.240436,98.7570424 142.344275,96.1494626 142.344275,92.8199111 C142.344275,91.0822141 142.923507,89.9237495 143.937164,88.7652848 L163.196638,66.0314505 L144.22678,43.4424242 C143.068315,42.1370828 142.633891,40.8348444 142.633891,39.5326061 C142.633891,36.0572121 145.095628,33.5954747 148.860638,33.5954747 C150.743143,33.5954747 152.191224,34.3195152 153.349689,35.6227879 L170.581851,57.0533495 L170.581851,57.0533495 Z"></path>
			<path d="M244.868396,99.3383434 C235.166255,99.3383434 227.20181,94.2721293 222.567952,86.8858828 L222.567952,119.033277 C222.567952,122.799321 219.816598,125.837188 215.761972,125.837188 C211.707345,125.837188 208.955992,122.798287 208.955992,119.033277 L208.955992,40.4004202 C208.955992,36.6354101 211.272921,33.5944404 215.472356,33.5944404 C219.67179,33.5944404 222.133527,36.7802182 222.133527,40.5452283 L222.133527,45.4707717 C226.47777,37.9407515 235.166255,33.0172768 244.868396,33.0172768 C261.521325,33.0172768 275.133285,46.9167838 275.133285,66.1783273 C275.133285,86.1597737 261.521325,99.3383434 244.868396,99.3383434 L244.868396,99.3383434 Z M242.118077,44.3112727 C230.388622,44.3112727 222.568986,54.5905778 222.568986,66.1772929 C222.568986,77.7640081 230.388622,88.0433131 242.118077,88.0433131 C253.847531,88.0433131 261.521325,79.2110545 261.521325,66.1772929 C261.521325,53.1445657 253.846497,44.3112727 242.118077,44.3112727 L242.118077,44.3112727 Z"></path>
			<path d="M346.958093,91.952097 C346.958093,95.7181414 344.351547,98.7580768 340.152113,98.7580768 C336.097487,98.7580768 333.49301,95.7181414 333.49301,91.952097 L333.49301,88.7663192 C329.438384,94.8482586 321.763556,99.3383434 312.353099,99.3383434 C292.07583,99.3383434 280.349479,84.5689535 280.349479,66.1762586 C280.349479,48.0752485 293.384275,33.0152081 313.800145,33.0152081 C334.652509,33.0152081 346.96223,46.6271677 346.96223,66.1762586 L346.96223,91.952097 L346.958093,91.952097 L346.958093,91.952097 Z M313.652234,44.5998545 C302.066554,44.5998545 293.957301,54.3040646 293.957301,66.1762586 C293.957301,78.6297535 300.763281,87.7526626 313.652234,87.7526626 C325.670271,87.7526626 333.345099,77.4712889 333.345099,66.1762586 C333.345099,52.8539152 325.236881,44.5998545 313.652234,44.5998545 L313.652234,44.5998545 Z"></path>
			<path d="M387.939814,33.0172768 C405.460558,33.0172768 418.347442,46.3396202 418.347442,63.2821657 L418.347442,91.9531313 C418.347442,95.7202101 415.307507,98.7591111 411.541463,98.7591111 C407.777487,98.7591111 404.735483,95.7202101 404.735483,91.9531313 L404.735483,61.6882424 C404.735483,52.5653333 397.495079,45.4697374 387.939814,45.4697374 C378.382481,45.4697374 371.284816,52.5632646 371.284816,61.6882424 L371.284816,91.9531313 C371.284816,95.7202101 368.244881,98.7591111 364.478836,98.7591111 C360.714861,98.7591111 357.672857,95.7202101 357.672857,91.9531313 L357.672857,63.2811313 C357.672857,46.3385859 370.415968,33.0172768 387.939814,33.0172768 L387.939814,33.0172768 Z"></path>
			<path d="M489.15756,66.3210667 C489.15756,68.637996 487.854287,70.9549253 483.945503,70.9549253 L440.648921,70.9549253 C441.371927,80.9466828 448.177907,88.4756687 460.195943,88.4756687 C467.726998,88.4756687 472.216048,85.8680889 476.993681,81.3800727 C478.15318,80.2216081 479.745034,79.2058828 481.482731,79.2058828 C484.522667,79.2058828 487.131281,81.3800727 487.131281,84.8544323 C487.131281,86.3004444 486.406206,87.6037172 485.393584,88.7621818 C479.890877,95.1337374 470.041859,99.3352404 459.617745,99.3352404 C438.040307,99.3352404 426.599434,84.2731313 426.599434,66.1721212 C426.599434,47.2022626 440.357236,33.0110707 459.03541,33.0110707 C477.285366,33.0172768 489.15756,47.7856323 489.15756,66.3210667 L489.15756,66.3210667 Z M459.038513,43.8778828 C449.046756,43.8778828 442.240776,50.9714101 440.937503,59.9515798 L476.559257,59.9515798 C475.401826,51.2610263 468.884428,43.8778828 459.038513,43.8778828 L459.038513,43.8778828 Z"></path>
			<path d="M505.086448,98.7580768 C501.029754,98.7580768 498.280469,95.7181414 498.280469,91.952097 L498.280469,6.80701414 C498.280469,3.03993535 501.031822,0.00103434343 505.086448,0.00103434343 C509.141075,0.00103434343 511.89036,3.03993535 511.89036,6.80701414 L511.89036,91.952097 C511.892428,95.7181414 509.141075,98.7580768 505.086448,98.7580768 L505.086448,98.7580768 Z"></path>
		</g>
	</g>
</svg>
